azure-patterns/svg-xamarin.svg

<svg xmlns="http://www.w3.org/2000/svg" viewBox="40 40 130 130">
                                
                            
    <path fill="#3498DB" d="M75.64462,45 C72.2146221,45.0072736 68.8570407,46.9542688 67.1303574,49.9244767 L40.2748461,96.5755051 C38.5750513,99.5536654 38.5750513,103.446335 40.2748461,106.424495 L67.1303574,153.075523 C68.8572221,156.045755 72.2146221,157.993272 75.64462,158 L129.355453,158 C132.785451,157.992726 136.142849,156.045755 137.869714,153.075523 L164.725221,106.424495 C166.425014,103.446335 166.424839,99.5536654 164.725221,96.5755051 L137.869714,49.9244767 C136.142849,46.9542688 132.785451,45.0067281 129.355453,45 L75.64462,45 L75.64462,45 Z M76.1320485,72.2914163 C76.2058317,72.2841427 76.2832193,72.2841427 76.3572323,72.2914163 L85.6215431,72.2914163 C86.0316324,72.2999021 86.4294204,72.5369 86.634211,72.8928696 L102.350001,100.898541 C102.429106,101.037006 102.480077,101.191278 102.499418,101.349625 C102.518771,101.191242 102.569693,101.036957 102.648835,100.898541 L118.327009,72.8928696 C118.538298,72.5261109 118.95472,72.2878037 119.37712,72.2914163 L128.641435,72.2914163 C129.4618,72.2986899 130.076151,73.3319643 129.69172,74.0582204 L114.351216,101.500006 L129.69172,128.904199 C130.112538,129.634626 129.48307,130.715809 128.641435,130.708584 L119.37712,130.708584 C118.947338,130.704947 118.528454,130.450153 118.327009,130.069538 L102.648835,102.063867 C102.569729,101.925402 102.518759,101.771117 102.499418,101.612783 C102.480065,101.771153 102.429142,101.925463 102.350001,102.063867 L86.634211,130.069538 C86.4387461,130.439388 86.0388414,130.691745 85.6215431,130.708584 L76.3572323,130.708584 C75.5155962,130.715857 74.8862984,129.634626 75.3071165,128.904199 L90.647616,101.500006 L75.3071165,74.0582204 C74.939386,73.3955961 75.388036,72.4328513 76.1320485,72.2914163 L76.1320485,72.2914163 Z"></path>
</svg>

<svg xmlns="http://www.w3.org/2000/svg" viewBox="40 40 130 130"><path fill="#3498DB" d="M75.645 45c-3.43.007-6.788 1.954-8.515 4.924L40.275 96.576c-1.7 2.978-1.7 6.87 0 9.848l26.855 46.652c1.727 2.97 5.085 4.917 8.515 4.924h53.71c3.43-.007 6.788-1.954 8.515-4.924l26.855-46.652c1.7-2.978 1.7-6.87 0-9.848L137.87 49.924c-1.727-2.97-5.085-4.917-8.515-4.924h-53.71zm.487 27.291c.074-.007.151-.007.225 0h9.265c.41.009.807.246 1.012.602l15.716 28.006c.08.138.13.292.15.45.019-.158.07-.312.149-.45l15.678-28.006a1.225 1.225 0 0 1 1.05-.602h9.264c.82.008 1.435 1.041 1.05 1.767l-15.34 27.442 15.34 27.404c.422.73-.208 1.812-1.05 1.805h-9.264a1.226 1.226 0 0 1-1.05-.64l-15.678-28.005a1.207 1.207 0 0 1-.15-.451c-.019.158-.07.312-.149.45L86.634 130.07c-.195.37-.595.622-1.012.639h-9.265c-.841.007-1.47-1.074-1.05-1.805l15.34-27.404-15.34-27.442c-.368-.662.081-1.625.825-1.767z"/></svg>
